Obsidian/actions/16s/boundingbox_bottom_left.svg

<svg xmlns="http://www.w3.org/2000/svg" width="16" height="16" viewBox="0 0 16 16">
 <defs>
  <style id="current-color-scheme" type="text/css">
   .ColorScheme-Text { color:#bebebe; } .ColorScheme-Highlight { color:#4285f4; }
  </style>
 </defs>
 <path style="fill:currentColor" class="ColorScheme-Text" d="M 4 0 L 4 6.1054688 C 3.99795 6.1058867 3.9961906 6.1069219 3.9941406 6.1074219 C 3.4381706 6.2222919 2.9058219 6.4309994 2.4199219 6.7246094 C 2.4079409 6.7318094 2.3947245 6.7368206 2.3828125 6.7441406 C 2.1592725 6.8828006 1.9470269 7.0388775 1.7480469 7.2109375 C 1.7255329 7.2302575 1.7037936 7.2498312 1.6816406 7.2695312 C 1.4840706 7.4435912 1.3005625 7.6329775 1.1328125 7.8359375 C 1.1286725 7.8410375 1.1252128 7.8465025 1.1210938 7.8515625 C 0.95509375 8.0562325 0.80554813 8.2737131 0.67382812 8.5019531 C 0.66500812 8.5171831 0.65514738 8.531555 0.64648438 8.546875 C 0.52038438 8.772475 0.41199563 9.0076 0.32226562 9.25 C 0.30976562 9.2833 0.29694625 9.3160094 0.28515625 9.3496094 C 0.20094625 9.5884094 0.13501062 9.8332313 0.087890625 10.082031 C 0.079901625 10.125031 0.075251375 10.167938 0.068359375 10.210938 C 0.024744375 10.471937 0.001886 10.736 0 11 C 0.0008805 11.14477 0.008050375 11.289444 0.021484375 11.433594 C 0.028954375 11.520504 0.040870375 11.605826 0.052734375 11.691406 C 0.062694375 11.767836 0.074412625 11.844022 0.087890625 11.919922 C 0.097860625 11.973472 0.11138488 12.025195 0.12304688 12.078125 C 0.18421688 12.357015 0.26916312 12.630141 0.37695312 12.894531 C 0.39502012 12.938541 0.41627088 12.980067 0.43554688 13.023438 C 0.54701687 13.278847 0.67964125 13.524502 0.83203125 13.757812 C 0.85451125 13.791702 0.88101888 13.822159 0.90429688 13.855469 C 1.0677969 14.092199 1.251415 14.314381 1.453125 14.519531 C 1.4678 14.534321 1.4831899 14.54789 1.4980469 14.5625 C 1.7114269 14.77437 1.9434863 14.966549 2.1914062 15.136719 C 2.2075512 15.147709 2.2259085 15.155216 2.2421875 15.166016 C 2.4935775 15.333616 2.7596394 15.478086 3.0371094 15.597656 L 3.0527344 15.605469 C 3.0603344 15.608669 3.0685549 15.610081 3.0761719 15.613281 C 3.3631219 15.733161 3.6606437 15.826015 3.9648438 15.890625 C 3.9787198 15.893525 3.9919404 15.897591 4.0058594 15.900391 C 4.1679994 15.933101 4.33259 15.957999 4.5 15.974609 C 4.6661 15.990609 4.833 16 5 16 C 5.28942 15.999643 5.5782713 15.974158 5.8632812 15.923828 C 5.8771293 15.921428 5.8904849 15.918516 5.9042969 15.916016 C 6.1449469 15.870316 6.3819213 15.806992 6.6132812 15.726562 C 6.6576372 15.711403 6.7022807 15.698001 6.7460938 15.681641 C 6.9704738 15.597151 7.1884875 15.496629 7.3984375 15.380859 C 7.4454275 15.355099 7.4910194 15.328011 7.5371094 15.300781 C 7.7466594 15.178781 7.9470588 15.041705 8.1367188 14.890625 C 8.1637487 14.868825 8.1882637 14.844626 8.2148438 14.822266 C 8.3925638 14.672616 8.5596337 14.510771 8.7148438 14.337891 C 8.7377037 14.312461 8.7628063 14.289582 8.7851562 14.263672 C 8.9424062 14.079042 9.0860137 13.883214 9.2148438 13.677734 C 9.2448837 13.630494 9.2742344 13.583516 9.3027344 13.535156 C 9.4298944 13.321076 9.5408756 13.097797 9.6347656 12.867188 C 9.6453656 12.840837 9.6538925 12.813689 9.6640625 12.787109 C 9.7636625 12.532109 9.8420375 12.268 9.8984375 12 L 16 12 L 16 10 L 9.8945312 10 C 9.8940312 9.9973 9.8931781 9.9947875 9.8925781 9.9921875 C 9.8443781 9.7559875 9.7790656 9.523575 9.6972656 9.296875 L 9.6933594 9.2851562 C 9.6926534 9.2832563 9.6922062 9.2812969 9.6914062 9.2792969 C 9.6096063 9.0591969 9.5122906 8.8451719 9.4003906 8.6386719 C 9.3905906 8.6203719 9.3810937 8.6020844 9.3710938 8.5839844 C 9.2700937 8.4026844 9.1578562 8.2279469 9.0351562 8.0605469 C 9.0166563 8.0351469 8.9993687 8.009475 8.9804688 7.984375 C 8.8433687 7.801875 8.6939031 7.6288969 8.5332031 7.4667969 C 8.3769031 7.3120969 8.2104563 7.1679562 8.0351562 7.0351562 C 8.0056562 7.0125563 7.9772656 6.9886969 7.9472656 6.9667969 C 7.5844656 6.7018969 7.1876781 6.487125 6.7675781 6.328125 C 6.7312781 6.314425 6.6949031 6.3019625 6.6582031 6.2890625 C 6.4433031 6.2115625 6.2234 6.1489625 6 6.1015625 L 6 0 L 4 0 z"/>
</svg>

<svg height="16" viewBox="0 0 16 16" width="16" xmlns="http://www.w3.org/2000/svg"><path d="m4 0v6.1054688c-.00205.0004179-.0038094.0014531-.0058594.0019531-.55597.11487-1.0883187.3235775-1.5742187.6171875-.011981.0072-.0251974.0122112-.0371094.0195312-.22354.13866-.4357856.2947369-.6347656.4667969-.022514.01932-.0442533.0388937-.0664063.0585937-.19757.17406-.3810781.3634463-.5488281.5664063-.00414.0051-.0075997.010565-.0117187.015625-.16600005.20467-.31554567.4221506-.44726568.6503906-.00882.01523-.01868074.0296019-.02734374.0449219-.1261.2256-.23448875.460725-.32421876.703125-.0125.0333-.02531937.0660094-.03710937.0996094-.08421.2388-.15014563.4836219-.19726562.7324216-.007989.043-.01263925.085907-.01953125.128907-.043615.260999-.06647338.525062-.06835938.789062.0008805.14477.00805038.289444.02148438.433594.00747.08691.019386.172232.03125.257812.00996.07643.02167825.152616.03515625.228516.00997.05355.02349425.105273.03515625.158203.06117.27889.14611624.552016.25390624.816406.018067.04401.03931776.085536.05859376.128907.11146999.255409.24409437.501064.39648437.734374.02248.03389.04898763.064347.07226563.097657.16350002.23673.34711812.458912.54882812.664062.014675.01479.0300649.028359.0449219.042969.21338.21187.4454394.404049.6933593.574219.016145.01099.0345023.018497.0507813.029297.25139.1676.5174519.31207.7949219.43164l.015625.007813c.0076.0032.0158205.004612.0234375.007812.28695.11988.5844718.212734.8886719.277344.013876.0029.0270966.006966.0410156.009766.16214.03271.3267306.057608.4941406.074218.1661.016.333.025391.5.025391.28942-.000357.5782713-.025842.8632812-.076172.0138481-.0024.0272037-.005312.0410157-.007812.24065-.0457.4776244-.109024.7089843-.189454.044356-.015159.0889995-.028561.1328126-.044921.22438-.08449.4423937-.185012.6523437-.300782.04699-.02576.0925819-.052848.1386719-.080078.20955-.122.4099494-.259076.5996094-.410156.0270299-.0218.0515449-.045999.078125-.068359.17772-.14965.3447899-.311495.5-.484375.0228599-.02543.0479625-.048309.0703124-.074219.15725-.18463.3008575-.380458.4296876-.585938.0300399-.04724.0593906-.094218.0878906-.142578.12716-.21408.2381412-.437359.3320312-.667968.0106-.026351.0191269-.053499.0292969-.080079.0996-.255.177975-.519109.234375-.787109h6.1015625v-2h-6.1054688c-.0005-.0027-.0013531-.0052125-.0019531-.0078125-.0482-.2362-.1135125-.4686125-.1953125-.6953125l-.0039062-.0117188c-.000706-.0018999-.0011532-.0038593-.0019532-.0058593-.0817999-.2201-.1791156-.434125-.2910156-.640625-.0098-.0183-.0192969-.0365875-.0292968-.0546875-.1010001-.1813-.2132376-.3560375-.3359376-.5234375-.0184999-.0254-.0357875-.0510719-.0546874-.0761719-.1371001-.1825-.2865657-.3554781-.4472657-.5175781-.1563-.1547-.3227468-.2988407-.4980469-.4316407-.0295-.0225999-.0578906-.0464593-.0878906-.0683593-.3628-.2649-.7595875-.4796719-1.1796875-.6386719-.0363-.0137-.072675-.0261625-.109375-.0390625-.2149-.0775-.4348031-.1401-.6582031-.1875v-6.1015625z" fill="#bebebe"/></svg>
